modules/hawcons-filled/icons/mail-error.svg

<?xml version="1.0" encoding="UTF-8" standalone="no"?>
<svg width="32px" height="32px" viewBox="0 0 32 32" version="1.1" xmlns="http://www.w3.org/2000/svg" xmlns:xlink="http://www.w3.org/1999/xlink" xmlns:sketch="http://www.bohemiancoding.com/sketch/ns">
    <!-- Generator: Sketch 3.0.3 (7891) - http://www.bohemiancoding.com/sketch -->
    <title>icon 8 mail error</title>
    <desc>Created with Sketch.</desc>
    <defs></defs>
    <g id="Page-1" stroke="none" stroke-width="1" fill="none" fill-rule="evenodd" sketch:type="MSPage">
        <g id="icon-8-mail-error" sketch:type="MSArtboardGroup" fill="#929292">
            <path d="M21.5322793,19.027668 L18,16 L23.9230769,10.9230769 L23.9230769,10.9230769 L23.1153846,10.1153846 L14.5,17.5 L5.88461538,10.1153846 L5.07692308,10.9230769 L5.07692308,10.9230769 L11,16 L5.07692308,21.0769231 L5.07692308,21.0769231 L5.88461538,21.8846154 L11.875,16.75 L14.5,19 L17.125,16.75 L20.9443347,20.0237154 L18.5972222,24 L4.00359486,24 C2.88976324,24 2,23.1072288 2,22.0059397 L2,9.99406028 C2,8.89451376 2.89703997,8 4.00359486,8 L24.9964051,8 C26.1102368,8 27,8.8927712 27,9.99406028 L27,18.2352941 L24.5,14 L21.5322793,19.027668 L21.5322793,19.027668 L21.5322793,19.027668 Z M24.5,16 L31,27 L18,27 L24.5,16 L24.5,16 Z M24,20 L24,23 L25,23 L25,20 L24,20 L24,20 Z M24,24 L24,25 L25,25 L25,24 L24,24 L24,24 Z" id="mail-error" sketch:type="MSShapeGroup"></path>
        </g>
    </g>
</svg>

<svg width="32" height="32" xmlns="http://www.w3.org/2000/svg"><path d="M21.532 19.028L18 16l5.923-5.077-.808-.808L14.5 17.5l-8.615-7.385-.808.808L11 16l-5.923 5.077.808.808 5.99-5.135L14.5 19l2.625-2.25 3.82 3.274L18.596 24H4.004A1.994 1.994 0 0 1 2 22.006V9.994A2 2 0 0 1 4.004 8h20.992C26.11 8 27 8.893 27 9.994v8.241L24.5 14l-2.968 5.028zM24.5 16L31 27H18l6.5-11zm-.5 4v3h1v-3h-1zm0 4v1h1v-1h-1z" fill="#929292" fill-rule="evenodd"/></svg>
